X:1
T:O altitudo divitiarum
T:O altitudo divitiarum
T:Sigismondo d'India
C:Sigismondo d'India
%%score [ 1 2 3 ] 4
L:1/8
Q:1/4=75
M:4/4
K:C
V:1 treble nm="Soprano" snm="S"
V:2 treble nm="Alto" snm="A"
V:3 treble-8 nm="Tenor" snm="T"
V:4 bass nm="Basso C." snm="B.C."
V:1
"^Transcribed by WVerkaik" d4 z2 ^FF | ^F>G A2 A2 z2 | c4 z2 EE | E>F G2 G4 | z2 d2 f4 | cc c4 G2 | %6
w: O al- ti-|tu- * * do,|O al- ti-|tu- * * do,|O, O|al- ti- tu do|
 c c2 B c2 d2 | ee A>A G2 z E | G G2 G/G/ G2 G2 | z d/d/ dc/B/ AF AB/B/ | c4 z E C>D | E4 z E E>F | %12
w: di- vi- ti- a- rum|Sa- pi- en- ti- ae et|sci- en- ti- ae De- i,|quam in- com- pre- * hen- si- bi- li- a|sunt ju- di- ci-|a, ju- di- ci-|
 G4 z d>cB | A2 D2 z E F/G/A- | A/A/G A/B/ c2 BA z | z2 E2 FF G3/2F/4E/4 | A2 G3 ^F G2 | %17
w: a e- * *|* ius, ju- di- * *|* ci- a e- * * * ius,|ju- di- ci- a * *|* e- * *|
 EA B2 GA d2- | d^cdd B3 A/A/ | d2 c2 z4 | CCCC E3 D/C/ | G>G G2 GGGG | B3 A/G/ d>d d2 | %23
w: ius, ju- di- ci- a e-|* * ius, ju- di- ci- a|e- ius,|et in- ves- ti- ga- * *|* bi- les, et in- ves- ti-|ga- * * * bi- les,|
 DDDD F3 E/D/ | A>A A2 AAAA | c3 B/A/ e>e e2 | z2 B3 c d2 | ^F3 G A2 ^C2- | CD E2 E4 | z2 G3 A B2 | %30
w: et in- ves- ti- ga * *|* bi- les, et in- ves- ti-|ga- * * * bi- les|vi- * *|ae * * e|* * * ius,|vi- * *|
 d3 e f2 A2- | AB c2 E3 F | G2 B,3 C D2 | D4 z2 D2- | DE F2 A3 B | c2 E3 F G2 | B3 c d2 ^F2- | %37
w: ae, * * vi-|* * * ae *|* e- * *|ius, vi-|* * * ae, *|* vi- * *|ae, * * *|
 FG A2 C3 D | E4 E2 z2 | E>F G4 F2 | E8 | ^F8 |] %42
w: * * * vi- *|* ae,|vi- * * ae|e-|ius.|
V:2
 z8 | A4 z2 ^CC | ^C>D E2 E2 z2 | G4 z2 B,B, | B,>C D2 D4 | z2 A2 c4 | GG G4 D2 | G G2 ^F G2 A2 | %8
w: |O al- ti-|tu- * * do,|O al- ti-|tu- * * do,|O, O|al- ti- tu do|di- vi- ti- a- rum|
 BB E>E D2 z B, | D D2 D/D/ D2 D2 | z A/A/ AG/F/ EC EF/F/ | G4 z B, G,>A, | B,4 z B, B,>C | %13
w: Sa- pi- en- ti- ae et|sci- en- ti- ae De- i,|quam in- com- pre- * hen- si- bi- li- a|sunt ju- di- ci-|a, ju- di- ci-|
 D4 z A>GF | E2 A,2 z B, C/D/E- | E/E/D E/F/ G2 FE z | z2 B,2 CC D3/2C/4B,/4 | E2 D3 ^C D2 | %18
w: a e- * *|* ius, ju- di- * *|* ci- a e- * * * ius,|ju- di- ci- a * *|* e- * *|
 B,E F2 DE A2- | AGAA ^F3 E/E/ | A2 G2 z4 | G,G,G,G, B,3 A,/G,/ | D>D D2 DDDD | F3 E/D/ A>A A2 | %24
w: ius, ju- di- ci- a e-|* * ius, ju- di- ci- a|e- ius,|et in- ves- ti- ga- * *|* bi- les, et in- ves- ti-|ga- * * * bi- les,|
 A,A,A,A, C3 B,/A,/ | E>E E2 EEEE | G3 F/E/ B>B B2 | z2 ^F3 G A2 | ^C3 D E2 ^G,2- | G,A, B,2 B,4 | %30
w: et in- ves- ti- ga * *|* bi- les, et in- ves- ti-|ga- * * * bi- les|vi- * *|ae * * e|* * * ius,|
 z2 D3 E F2 | A3 B c2 E2- | EF G2 B,3 C | D2 ^F,3 G, A,2 | A,4 z2 A,2- | A,B, C2 E3 F | %36
w: vi- * *|ae, * * vi-|* * * ae *|* e- * *|ius, vi-|* * * ae, *|
 G2 B,3 C D2 | ^F3 G A2 ^C2- | CD E2 ^G,3 A, | B,4 B,2 D2- | D2 CB, ^C4 | D8 |] %42
w: * vi- * *|ae, * * vi-|* * * ae, *|* e- *||ius.|
V:3
 z4 d4 | z2 ^FF F>G A2 | A2 z2 c4 | z2 EE E>F G2 | G4 z2 d2 | f4 cc c2- | c2 G2 c c2 B | %7
w: O|al- ti- tu- * *|do, O|al- ti- tu- * *|do, O,|O al- ti- tu|* do di- vi- ti-|
 c2 d2 ee A>A | G2 z E G G2 G/G/ | G2 G2 z d/d/ dc/B/ | AF AB/B/ c4 | z E C>D E4 | z E E>F G4 | %13
w: a- rum Sa- pi- en- ti-|ae et sci- en- ti- ae|De- i, quam in- com- pre- *|hen- si- bi- li- a sunt|ju- di- ci- a,|ju- di- ci- a|
 z d>cB A2 D2 | z E F/G<AA/G A/B/c- | cBA z z2 E2 | FF G3/2F/4E/4 A2 G2- | G^F G2 EA B2 | %18
w: e- * * * ius,|ju- di- * * ci- a e- * *|* * ius, ju-|di- ci- a * * * e-|* * * ius, ju- di-|
 GA d3 ^c dd | B3 A/A/ d2 c2 | z4 CCCC | E3 D/C/ G>G G2 | GGGG B3 A/G/ | d>d d2 DDDD | %24
w: ci- a e- * ius, ju-|di- ci- a e- ius,|et in- ves- ti-|ga- * * * bi- les,|et in- ves- ti- ga- * *|* bi- les, et in- ves- ti-|
 F3 E/D/ A>A A2 | AAAA c3 B/A/ | e>e e2 z2 B2- | Bc d2 ^F3 G | A2 ^C3 D E2 | E4 z2 G2- | %30
w: ga * * * bi- les,|et in- ves- ti- ga- * *|* bi- les vi-|* * * ae *|* e * *|ius, vi-|
 GA B2 d3 e | f2 A3 B c2 | E3 F G2 B,2- | B,C D2 D4 | z2 D3 E F2 | A3 B c2 E2- | EF G2 B3 c | %37
w: * * * ae, *|* vi- * *|ae * * e-|* * * ius,|vi- * *|ae, * * vi-|* * * ae, *|
 d2 ^F3 G A2 | ^C3 D E4 | E2 z2 G2 D2 | A8 | D8 |] %42
w: |vi- * *|ae, vi- ae|e-|ius.|
V:4
 D,4 D4 | D2 ^F,F, F,>G, A,2 | A,2 A,2 C4- | C2 E,E, E,>F, G,2 | G,2 D,2 D2 F2- | F2 CC C4 | %6
w: * #|* * * * * #|||||
 G,4"^10" C2 CB, | C2 D2 EE A,>A, | G,2 G,E, G, G,2 G,/G,/ | G,2 G,2 D3 C/B,/ | A,F,A,B, C2 C2- | %11
w: 11 * * *|||||
 CE, C,>D, E,2 E,2- | E,E, E,>F, G,4 | D,D>CB, A,2 D,2 | E,E, F,/G,<A,A,/G, A,/B,/C- | %15
w: |||11 10 * * * * * * * *|
 CB,A,C, D,2"^10" E,2 | F,F, G,3/2F,/4E,/4 A,2"^6#" G,G, | G,^F, G,2 E,A, B,2 | G,A, D2 D^CDD | %19
w: * * * * 11 6|* 6 * * * 7 * *|6 * * * # *|* * * 6 * 6 *|
 B,2 A,2 D2 C2"^3" | C2 C2 C,3 C, | E,3 D,/C,/ G,4 | G,4 B,3 A,/G,/ | D4 D,4 | F,3 E,/D,/ A,4 | %25
w: 6 * * 4||||||
 A,4 C3 B,/A,/ | E6 B,2- | B,C D2 ^F,3 G, | A,2 ^C,3 D, E,2 | E,2 E,2 G,2 G,2- | G,A, B,2 D3 E | %31
w: ||* * # * *|* * * #|# * * *||
 F2 A,3 B, C2 | E,3 F, G,2 B,,2- | B,,C, D,2 D,2 D,2- | D,2 D,3 E, F,2 | A,3 B, C2 E,2- | %36
w: ||* * # * *|||
 E,F, G,2 B,3 C | D2 ^F,3 G, A,2 | ^C,3 D, E,4 | E,3 F, G,2 D,2 | A,4"^3" A,4 | D,8 |] %42
w: |# * * *|* * #||4 #||

